svgs/sharp-light/wand-magic-sparkles.svg

<svg xmlns="http://www.w3.org/2000/svg" viewBox="0 0 576 512"><!--! Font Awesome Pro 6.6.0 by @fontawesome - https://fontawesome.com License - https://fontawesome.com/license (Commercial License) Copyright 2024 Fonticons, Inc. --><path d="M150.6 489.4L128 512l-22.6-22.6L54.6 438.6 32 416l22.6-22.6L425.4 22.6 448 0l22.6 22.6 50.7 50.7L544 96l-22.6 22.6L150.6 489.4zM498.7 96L448 45.3 337.9 155.3l50.7 50.7L498.7 96zM128 466.7L366.1 228.7l-50.7-50.7L77.3 416 128 466.7zM252.2 3.8l0 12.2 0 19.8 19.8 0 12.2 0 0 24.3-12.2 0-19.8 0 0 19.8 0 12.2-24.3 0 0-12.2 0-19.8-19.8 0-12.2 0 0-24.3 12.2 0 19.8 0 0-19.8 0-12.2 24.3 0zM128 80l0 48 48 0 16 0 0 32-16 0-48 0 0 48 0 16-32 0 0-16 0-48-48 0-16 0 0-32 16 0 48 0 0-48 0-16 32 0 0 16zM480 336l0 48 48 0 16 0 0 32-16 0-48 0 0 48 0 16-32 0 0-16 0-48-48 0-16 0 0-32 16 0 48 0 0-48 0-16 32 0 0 16z"/></svg>

<svg xmlns="http://www.w3.org/2000/svg" viewBox="0 0 576 512"><!--! Font Awesome Pro 6.4.0 by @fontawesome - https://fontawesome.com License - https://fontawesome.com/license (Commercial License) Copyright 2023 Fonticons, Inc. --><path d="M150.6 489.4L128 512l-22.6-22.6L54.6 438.6 32 416l22.6-22.6L425.4 22.6 448 0l22.6 22.6 50.7 50.7L544 96l-22.6 22.6L150.6 489.4zM498.7 96L448 45.3 337.9 155.3l50.7 50.7L498.7 96zM128 466.7L366.1 228.7l-50.7-50.7L77.3 416 128 466.7zM252.2 3.8V16 35.8H272h12.2V60.2H272 252.2V80 92.2H227.8V80 60.2H208 195.8V35.8H208h19.8V16 3.8h24.3zM128 80v48h48 16v32H176 128v48 16H96V208 160H48 32V128H48 96V80 64h32V80zM480 336v48h48 16v32H528 480v48 16H448V464 416H400 384V384h16 48V336 320h32v16z"/></svg>
